X: 40
T:Peacock's Feather, The
M:6/8
L:1/8
Q:120
S:THSP
R:jig
D:
Z:
K:D
"D"AFD DED|DEF A2d|"G"BGG dGG|BAG Bcd|
"D"AFD D2A,|DEF A2A|def gfg|"A"fdd dcB:|:
"D"Add fdd|add fdd|Add fdd|"G"edB BAB|
"D"Add fdd|add fdd|faf gfe|"A"fdd "D"dcB:|]
